assets/heart.svg

<svg xmlns="http://www.w3.org/2000/svg" fill="none" viewBox="0 0 28 24">
  <mask id="a" fill="#fff">
    <path fill-rule="evenodd" d="M23.6081 14 14 23.6081 4.39192 14 1.9899 11.598c-2.6532-2.65321-2.6532-6.9549 0-9.6081s6.95489-2.653201 9.6081 0L14 4.39192l2.402-2.40202c2.6532-2.653201 6.9549-2.6532 9.6081 0s2.6532 6.95489 0 9.6081L23.6081 14Z" clip-rule="evenodd"/>
  </mask>
  <path fill="#2A2238" d="m14 23.6081-1.0606 1.0607L14 25.7294l1.0607-1.0606L14 23.6081ZM23.6081 14l-1.0606-1.0606L23.6081 14ZM4.39192 14l1.06066-1.0606L4.39192 14ZM1.9899 11.598.929241 12.6587 1.9899 11.598Zm0-9.6081 1.06066 1.06066L1.9899 1.9899Zm9.6081 0L12.6587.929241 11.598 1.9899ZM14 4.39192l-1.0606 1.06066L14 6.51325l1.0607-1.06066L14 4.39192Zm2.402-2.40202 1.0607 1.06066L16.402 1.9899Zm9.6081 0L27.0708.929241 26.0101 1.9899Zm0 9.6081 1.0607 1.0607-1.0607-1.0607ZM15.0607 24.6688l9.6081-9.6081-2.1213-2.1213-9.6081 9.6081 2.1213 2.1213ZM3.33126 15.0607l9.60814 9.6081 2.1213-2.1213-9.60812-9.6081-2.12132 2.1213Zm-2.402019-2.402 2.402019 2.402 2.12132-2.1213-2.40202-2.4021-2.121319 2.1214Zm0-11.729459C-2.30975 4.16823-2.30975 9.41967.929241 12.6587l2.121319-2.1214c-2.067414-2.06738-2.067414-5.41932 0-7.48674L.929241.929241Zm11.729459 0C9.41967-2.30975 4.16823-2.30975.929241.929241L3.05056 3.05056c2.06742-2.067414 5.41936-2.067414 7.48674 0L12.6587.929241Zm2.402 2.402019L12.6587.929241 10.5373 3.05056l2.4021 2.40202 2.1213-2.12132Zm.2807-2.402019-2.402 2.402019 2.1213 2.12133 2.402-2.40203L15.3414.929241Zm11.7294 0c-3.239-3.238991-8.4904-3.238991-11.7294 0l2.1213 2.121319c2.0674-2.067414 5.4194-2.067414 7.4868 0L27.0708.929241Zm0 11.729459c3.239-3.23903 3.239-8.49047 0-11.729459L24.9495 3.05056c2.0674 2.06742 2.0674 5.41936 0 7.48674l2.1213 2.1214Zm-2.402 2.402 2.402-2.402-2.1213-2.1214-2.402 2.4021 2.1213 2.1213Z" mask="url(#a)"/>
</svg>

<svg width="28" height="24" viewBox="0 0 28 24" fill="none" xmlns="http://www.w3.org/2000/svg">
<mask id="path-1-inside-1_31_146" fill="white">
<path fill-rule="evenodd" clip-rule="evenodd" d="M23.6081 14L14 23.6081L4.39192 14L1.9899 11.598C-0.6633 8.94479 -0.6633 4.6431 1.9899 1.9899C4.6431 -0.6633 8.94479 -0.663301 11.598 1.9899L14 4.39192L16.402 1.9899C19.0552 -0.663301 23.3569 -0.6633 26.0101 1.9899C28.6633 4.6431 28.6633 8.94479 26.0101 11.598L23.6081 14Z"/>
</mask>
<path d="M14 23.6081L12.9394 24.6688L14 25.7294L15.0607 24.6688L14 23.6081ZM23.6081 14L22.5475 12.9394L22.5475 12.9394L23.6081 14ZM4.39192 14L5.45258 12.9394L5.45258 12.9394L4.39192 14ZM1.9899 11.598L0.929241 12.6587L0.929241 12.6587L1.9899 11.598ZM1.9899 1.9899L3.05056 3.05056L1.9899 1.9899ZM11.598 1.9899L12.6587 0.929241L12.6587 0.929241L11.598 1.9899ZM14 4.39192L12.9394 5.45258L14 6.51325L15.0607 5.45259L14 4.39192ZM16.402 1.9899L17.4627 3.05056L17.4627 3.05056L16.402 1.9899ZM26.0101 1.9899L27.0708 0.929241L26.0101 1.9899ZM26.0101 11.598L27.0708 12.6587L27.0708 12.6587L26.0101 11.598ZM15.0607 24.6688L24.6688 15.0607L22.5475 12.9394L12.9394 22.5475L15.0607 24.6688ZM3.33126 15.0607L12.9394 24.6688L15.0607 22.5475L5.45258 12.9394L3.33126 15.0607ZM0.929241 12.6587L3.33126 15.0607L5.45258 12.9394L3.05056 10.5373L0.929241 12.6587ZM0.929241 0.929241C-2.30975 4.16823 -2.30975 9.41967 0.929241 12.6587L3.05056 10.5373C0.983146 8.46992 0.983146 5.11798 3.05056 3.05056L0.929241 0.929241ZM12.6587 0.929241C9.41967 -2.30975 4.16823 -2.30975 0.929241 0.929241L3.05056 3.05056C5.11798 0.983146 8.46992 0.983146 10.5373 3.05056L12.6587 0.929241ZM15.0607 3.33126L12.6587 0.929241L10.5373 3.05056L12.9394 5.45258L15.0607 3.33126ZM15.3414 0.929241L12.9394 3.33126L15.0607 5.45259L17.4627 3.05056L15.3414 0.929241ZM27.0708 0.929241C23.8318 -2.30975 18.5804 -2.30975 15.3414 0.929241L17.4627 3.05056C19.5301 0.983146 22.8821 0.983146 24.9495 3.05056L27.0708 0.929241ZM27.0708 12.6587C30.3098 9.41967 30.3098 4.16823 27.0708 0.929241L24.9495 3.05056C27.0169 5.11798 27.0169 8.46992 24.9495 10.5373L27.0708 12.6587ZM24.6688 15.0607L27.0708 12.6587L24.9495 10.5373L22.5475 12.9394L24.6688 15.0607Z" fill="#2A2238" mask="url(#path-1-inside-1_31_146)"/>
</svg>
